images/logos/microsoft-certified.svg

<svg xmlns="http://www.w3.org/2000/svg" width="393" height="398" shape-rendering="geometricPrecision" text-rendering="geometricPrecision" image-rendering="optimizeQuality" fill-rule="evenodd" clip-rule="evenodd"><path fill="#002051" d="M311.5 150.5c-76.999-10.667-153.999-10.667-231 0-.167-21.669 0-43.336.5-65 2.904-12.57 10.737-20.07 23.5-22.5l83-25a72.496 72.496 0 0117 0l90 27c8.596 2.93 14.096 8.763 16.5 17.5.5 22.664.667 45.331.5 68z" opacity=".995"/><path fill="#e6e9ee" d="M245.5 89.5h6v4h-4v3h3v4h-3v11h-5v-11h-3v-4h3c-.591-3.175.409-5.509 3-7z"/><path fill="#e4e8ed" d="M160.5 89.5c3.661-.15 4.661 1.35 3 4.5-3.793.487-4.793-1.013-3-4.5z"/><path fill="#f4f6f8" d="M151.5 111.5a98.432 98.432 0 00-.5-14c-1.039.744-1.539 1.744-1.5 3a34.512 34.512 0 00-3 11h-5a43.278 43.278 0 00-3-10c.039-1.256-.461-2.256-1.5-3a84.902 84.902 0 00-.5 13h-4v-21a13.118 13.118 0 017 1 60.008 60.008 0 014.5 13 298.062 298.062 0 014.5-13 13.118 13.118 0 017-1v21h-4z"/><path fill="#eaedf1" d="M254.5 92.5h4v4h3v4h-3v7h3v4c-2.865.445-5.365-.222-7.5-2a31.117 31.117 0 00-2.5-11 38.624 38.624 0 003-6z"/><path fill="#f4f5f7" d="M159.5 96.5h5v15h-5v-15z"/><path fill="#e3e6ec" d="M171.5 96.5h8v4c-6.162-1.344-8.162.822-6 6.5 1.973.495 3.973.662 6 .5v4c-8.595 1.889-12.762-1.444-12.5-10 1.025-2.187 2.525-3.854 4.5-5z"/><path fill="#f2f3f6" d="M181.5 96.5c3.435.868 6.769.868 10 0v4c-1.89-.203-3.39.463-4.5 2a40.914 40.914 0 00-.5 9h-5v-15z"/><path fill="#eef0f3" d="M196.5 96.5c8.991-1.507 12.825 2.16 11.5 11-4.053 4.508-8.72 5.174-14 2-2.533-5.149-1.7-9.482 2.5-13zM212.5 96.5h8a8.43 8.43 0 01-.5 4c-1.356-.88-2.856-1.213-4.5-1v3c5.208-.131 6.875 2.202 5 7a4.457 4.457 0 01-2 1.5 40.914 40.914 0 01-9 .5v-4c8.538 1.488 9.038.155 1.5-4-.833-2.671-.333-5.004 1.5-7z"/><path fill="#ebedf1" d="M226.5 96.5c11.308-1.205 14.642 3.295 10 13.5-9.021 3.949-13.521 1.116-13.5-8.5a27.248 27.248 0 013.5-5z"/><path fill="#7f8fa7" d="M151.5 111.5l-2-11c-.039-1.256.461-2.256 1.5-3 .499 4.655.666 9.321.5 14z"/><path fill="#465d80" d="M138.5 101.5l-2 10a84.902 84.902 0 01.5-13c1.039.744 1.539 1.744 1.5 3z"/><path fill="#042352" d="M198.5 100.5c4.828-.115 6.161 2.052 4 6.5-4.93.427-6.263-1.74-4-6.5z"/><path fill="#122a58" d="M228.5 100.5h5v7c-5.365.264-7.032-2.069-5-7z"/><path fill="#515255" d="M311.5 150.5a251.563 251.563 0 0131 5.5c6.239 3.3 9.905 8.467 11 15.5a1481.9 1481.9 0 01-15.5 75c-7.296 8.275-16.13 10.275-26.5 6a146.585 146.585 0 01-12-2c-69.018-9.285-138.018-9.285-207 0a63.084 63.084 0 00-12 2c-10.73 4.4-19.563 2.067-26.5-7A1431.206 1431.206 0 0139.5 172c.51-8.519 4.844-14.186 13-17a569.435 569.435 0 0128-4.5c77.001-10.667 154.001-10.667 231 0z" opacity=".999"/><path fill="#fdfdfd" d="M155.5 149.5a936.587 936.587 0 01167 9.5 80.423 80.423 0 0120 5c1.987 2.14 3.32 4.64 4 7.5a3326.24 3326.24 0 00-12.5 65c-.511 7.512-4.511 11.179-12 11-84.331-14.624-168.665-14.624-253 0-4.333 0-7.333-2-9-6A5197.827 5197.827 0 0146.5 171c.812-4.15 3.146-7.15 7-9a1066.589 1066.589 0 01102-12.5z"/><path fill="#2e2e2e" d="M142.5 180.5c5.344-.166 10.677.001 16 .5 4.726 2.388 6.226 6.222 4.5 11.5-.93 2.052-2.43 3.552-4.5 4.5a94.102 94.102 0 0110 13 16.242 16.242 0 01-8 0 82.262 82.262 0 01-7-10 8.43 8.43 0 00-4-.5v11h-7v-30z"/><path fill="#303030" d="M168.5 179.5c7.674-.166 15.341 0 23 .5.906 1.699 1.239 3.533 1 5.5h-9v24h-7v-24h-8v-6z"/><path fill="#292929" d="M197.5 179.5h7v30h-7v-30z"/><path fill="#6f6f6f" d="M230.5 180.5h-17c.31 3.213-.023 6.213-1 9v-10c6.19-.323 12.19.01 18 1z"/><path fill="#2b2b2b" d="M230.5 180.5v5h-11v7h10v6h-10v3c-.973 2.448-1.306 5.115-1 8h-6v-20c.977-2.787 1.31-5.787 1-9h17z"/><path fill="#313131" d="M236.5 180.5h7a300.808 300.808 0 01-1 30h-7c.49-9.994.823-19.994 1-30z"/><path fill="#2d2d2d" d="M130.5 206.5h6v5c-6.009.201-12.009.534-18 1a324.548 324.548 0 00-1-30 105.279 105.279 0 0117-1c.239 1.967-.094 3.801-1 5.5a40.914 40.914 0 01-9 .5v6h10v6h-9v7h5z"/><path fill="#2c2c2c" d="M264.5 193.5c.709.904 1.709 1.237 3 1v5h-9c-.968 2.107-1.302 4.441-1 7h9c1.193.47 1.86 1.47 2 3l-1 3a77.74 77.74 0 00-17-1c.666-9.986.999-19.986 1-30h18v6h-11v6h6z"/><path fill="#2f2f2f" d="M276.5 182.5a63.692 63.692 0 0120 3.5c4.24 2.646 6.24 6.479 6 11.5-.48 10.813-6.147 16.146-17 16-3.68-.279-7.347-.612-11-1a832.642 832.642 0 002-30z"/><path fill="#2e2e2e" d="M97.5 183.5h13v6c-12.54-1.968-17.04 3.032-13.5 15 4.644 4.937 9.644 5.271 15 1 1.412 4.554-.088 7.388-4.5 8.5-12.512 2.317-18.845-2.85-19-15.5a19.87 19.87 0 011.5-8 72.647 72.647 0 017.5-7z"/><path fill="#ededed" d="M149.5 185.5c6.725-.296 8.391 2.371 5 8a9.108 9.108 0 01-5 1v-9z"/><path fill="#fafafa" d="M283.5 189.5c9.205-.294 12.705 4.04 10.5 13a11.532 11.532 0 01-3.5 4.5 40.914 40.914 0 01-9 .5l2-18z"/><path fill="#949494" d="M264.5 193.5h4c.295 2.235-.039 4.235-1 6v-5c-1.291.237-2.291-.096-3-1z"/><path fill="#696969" d="M219.5 201.5v9c-2.559.302-4.893-.032-7-1h6c-.306-2.885.027-5.552 1-8z"/><path fill="#7b7b7b" d="M130.5 206.5c2.107-.968 4.441-1.302 7-1 .295 2.235-.039 4.235-1 6v-5h-6z"/><path fill="#a7a7a7" d="M258.5 199.5v6c2.885-.306 5.552.027 8 1h-9c-.302-2.559.032-4.893 1-7z"/><path fill="#0077d3" d="M299.5 250.5c-.089 16.437-5.589 30.77-16.5 43-24.724 24.875-53.724 43.208-87 55-32.858-11.563-61.524-29.563-86-54-11.097-12.534-16.93-27.201-17.5-44 68.982-9.285 137.982-9.285 207 0z"/><path fill="#002254" d="M92.5 250.5c.57 16.799 6.403 31.466 17.5 44 24.476 24.437 53.142 42.437 86 54 33.276-11.792 62.276-30.125 87-55 10.911-12.23 16.411-26.563 16.5-43 3.939.827 7.939 1.494 12 2-.152 12.959-3.652 24.959-10.5 36-15.44 21.773-34.94 38.94-58.5 51.5a262.855 262.855 0 01-46.5 20.5c-31.459-10.304-59.626-26.138-84.5-47.5-18.17-16.173-28.503-36.339-31-60.5a63.084 63.084 0 0112-2z" opacity=".973"/></svg>

<svg xmlns="http://www.w3.org/2000/svg" version="1.1" style="shape-rendering:geometricPrecision; text-rendering:geometricPrecision; image-rendering:optimizeQuality; fill-rule:evenodd; clip-rule:evenodd" xmlns:xlink="http://www.w3.org/1999/xlink">
<g><path style="opacity:0.995" fill="#002051" d="M 311.5,150.5 C 234.501,139.833 157.501,139.833 80.5,150.5C 80.3334,128.831 80.5,107.164 81,85.5C 83.9038,72.9309 91.7372,65.4309 104.5,63C 132.167,54.6667 159.833,46.3333 187.5,38C 193.167,37.3333 198.833,37.3333 204.5,38C 234.5,47 264.5,56 294.5,65C 303.096,67.9294 308.596,73.7627 311,82.5C 311.5,105.164 311.667,127.831 311.5,150.5 Z"/></g>
<g><path style="opacity:1" fill="#e6e9ee" d="M 245.5,89.5 C 247.5,89.5 249.5,89.5 251.5,89.5C 251.5,90.8333 251.5,92.1667 251.5,93.5C 250.167,93.5 248.833,93.5 247.5,93.5C 247.5,94.5 247.5,95.5 247.5,96.5C 248.5,96.5 249.5,96.5 250.5,96.5C 250.5,97.8333 250.5,99.1667 250.5,100.5C 249.5,100.5 248.5,100.5 247.5,100.5C 247.5,104.167 247.5,107.833 247.5,111.5C 245.833,111.5 244.167,111.5 242.5,111.5C 242.5,107.833 242.5,104.167 242.5,100.5C 241.5,100.5 240.5,100.5 239.5,100.5C 239.5,99.1667 239.5,97.8333 239.5,96.5C 240.5,96.5 241.5,96.5 242.5,96.5C 241.909,93.3247 242.909,90.9913 245.5,89.5 Z"/></g>
<g><path style="opacity:1" fill="#e4e8ed" d="M 160.5,89.5 C 164.161,89.3501 165.161,90.8501 163.5,94C 159.707,94.4866 158.707,92.9866 160.5,89.5 Z"/></g>
<g><path style="opacity:1" fill="#f4f6f8" d="M 151.5,111.5 C 151.666,106.821 151.499,102.155 151,97.5C 149.961,98.2438 149.461,99.2438 149.5,100.5C 147.894,103.986 146.894,107.653 146.5,111.5C 144.833,111.5 143.167,111.5 141.5,111.5C 140.901,108.037 139.901,104.704 138.5,101.5C 138.539,100.244 138.039,99.2438 137,98.5C 136.501,102.821 136.334,107.154 136.5,111.5C 135.167,111.5 133.833,111.5 132.5,111.5C 132.5,104.5 132.5,97.5 132.5,90.5C 134.924,90.1924 137.257,90.5258 139.5,91.5C 141.497,95.6569 142.997,99.9903 144,104.5C 145.401,100.129 146.901,95.7959 148.5,91.5C 150.743,90.5258 153.076,90.1924 155.5,90.5C 155.5,97.5 155.5,104.5 155.5,111.5C 154.167,111.5 152.833,111.5 151.5,111.5 Z"/></g>
<g><path style="opacity:1" fill="#eaedf1" d="M 254.5,92.5 C 255.833,92.5 257.167,92.5 258.5,92.5C 258.5,93.8333 258.5,95.1667 258.5,96.5C 259.5,96.5 260.5,96.5 261.5,96.5C 261.5,97.8333 261.5,99.1667 261.5,100.5C 260.5,100.5 259.5,100.5 258.5,100.5C 258.5,102.833 258.5,105.167 258.5,107.5C 259.5,107.5 260.5,107.5 261.5,107.5C 261.5,108.833 261.5,110.167 261.5,111.5C 258.635,111.945 256.135,111.278 254,109.5C 253.834,105.669 253.001,102.003 251.5,98.5C 252.689,96.557 253.689,94.557 254.5,92.5 Z"/></g>
<g><path style="opacity:1" fill="#f4f5f7" d="M 159.5,96.5 C 161.167,96.5 162.833,96.5 164.5,96.5C 164.5,101.5 164.5,106.5 164.5,111.5C 162.833,111.5 161.167,111.5 159.5,111.5C 159.5,106.5 159.5,101.5 159.5,96.5 Z"/></g>
<g><path style="opacity:1" fill="#e3e6ec" d="M 171.5,96.5 C 174.167,96.5 176.833,96.5 179.5,96.5C 179.5,97.8333 179.5,99.1667 179.5,100.5C 173.338,99.1555 171.338,101.322 173.5,107C 175.473,107.495 177.473,107.662 179.5,107.5C 179.5,108.833 179.5,110.167 179.5,111.5C 170.905,113.389 166.738,110.056 167,101.5C 168.025,99.313 169.525,97.6464 171.5,96.5 Z"/></g>
<g><path style="opacity:1" fill="#f2f3f6" d="M 181.5,96.5 C 184.935,97.3678 188.269,97.3678 191.5,96.5C 191.5,97.8333 191.5,99.1667 191.5,100.5C 189.61,100.297 188.11,100.963 187,102.5C 186.502,105.482 186.335,108.482 186.5,111.5C 184.833,111.5 183.167,111.5 181.5,111.5C 181.5,106.5 181.5,101.5 181.5,96.5 Z"/></g>
<g><path style="opacity:1" fill="#eef0f3" d="M 196.5,96.5 C 205.491,94.9934 209.325,98.66 208,107.5C 203.947,112.008 199.28,112.674 194,109.5C 191.467,104.351 192.3,100.018 196.5,96.5 Z"/></g>
<g><path style="opacity:1" fill="#eef0f3" d="M 212.5,96.5 C 215.167,96.5 217.833,96.5 220.5,96.5C 220.657,97.8734 220.49,99.2068 220,100.5C 218.644,99.6198 217.144,99.2865 215.5,99.5C 215.5,100.5 215.5,101.5 215.5,102.5C 220.708,102.369 222.375,104.702 220.5,109.5C 219.975,110.192 219.308,110.692 218.5,111C 215.518,111.498 212.518,111.665 209.5,111.5C 209.5,110.167 209.5,108.833 209.5,107.5C 218.038,108.988 218.538,107.655 211,103.5C 210.167,100.829 210.667,98.4957 212.5,96.5 Z"/></g>
<g><path style="opacity:1" fill="#ebedf1" d="M 226.5,96.5 C 237.808,95.2947 241.142,99.7947 236.5,110C 227.479,113.949 222.979,111.116 223,101.5C 223.997,99.6769 225.164,98.0103 226.5,96.5 Z"/></g>
<g><path style="opacity:1" fill="#7f8fa7" d="M 151.5,111.5 C 150.833,107.833 150.167,104.167 149.5,100.5C 149.461,99.2438 149.961,98.2438 151,97.5C 151.499,102.155 151.666,106.821 151.5,111.5 Z"/></g>
<g><path style="opacity:1" fill="#465d80" d="M 138.5,101.5 C 137.833,104.833 137.167,108.167 136.5,111.5C 136.334,107.154 136.501,102.821 137,98.5C 138.039,99.2438 138.539,100.244 138.5,101.5 Z"/></g>
<g><path style="opacity:1" fill="#042352" d="M 198.5,100.5 C 203.328,100.385 204.661,102.552 202.5,107C 197.57,107.427 196.237,105.26 198.5,100.5 Z"/></g>
<g><path style="opacity:1" fill="#122a58" d="M 228.5,100.5 C 230.167,100.5 231.833,100.5 233.5,100.5C 233.5,102.833 233.5,105.167 233.5,107.5C 228.135,107.764 226.468,105.431 228.5,100.5 Z"/></g>
<g><path style="opacity:0.999" fill="#515255" d="M 311.5,150.5 C 321.947,151.686 332.28,153.519 342.5,156C 348.739,159.3 352.405,164.467 353.5,171.5C 348.976,196.651 343.809,221.651 338,246.5C 330.704,254.775 321.87,256.775 311.5,252.5C 307.439,251.994 303.439,251.327 299.5,250.5C 230.482,241.215 161.482,241.215 92.5,250.5C 88.426,250.782 84.426,251.448 80.5,252.5C 69.7703,256.9 60.937,254.567 54,245.5C 48.5296,221.148 43.6962,196.648 39.5,172C 40.0108,163.481 44.3441,157.814 52.5,155C 61.8056,153.266 71.139,151.766 80.5,150.5C 157.501,139.833 234.501,139.833 311.5,150.5 Z"/></g>
<g><path style="opacity:1" fill="#fdfdfd" d="M 155.5,149.5 C 211.456,147.686 267.123,150.853 322.5,159C 329.411,159.816 336.078,161.483 342.5,164C 344.487,166.14 345.82,168.64 346.5,171.5C 342.118,193.122 337.952,214.789 334,236.5C 333.489,244.012 329.489,247.679 322,247.5C 237.669,232.876 153.335,232.876 69,247.5C 64.6667,247.5 61.6667,245.5 60,241.5C 55.3404,218.045 50.8404,194.545 46.5,171C 47.3124,166.85 49.6457,163.85 53.5,162C 87.4392,156.177 121.439,152.011 155.5,149.5 Z"/></g>
<g><path style="opacity:1" fill="#2e2e2e" d="M 142.5,180.5 C 147.844,180.334 153.177,180.501 158.5,181C 163.226,183.388 164.726,187.222 163,192.5C 162.07,194.552 160.57,196.052 158.5,197C 162.216,201.048 165.55,205.382 168.5,210C 165.833,210.667 163.167,210.667 160.5,210C 157.92,206.842 155.587,203.508 153.5,200C 152.207,199.51 150.873,199.343 149.5,199.5C 149.5,203.167 149.5,206.833 149.5,210.5C 147.167,210.5 144.833,210.5 142.5,210.5C 142.5,200.5 142.5,190.5 142.5,180.5 Z"/></g>
<g><path style="opacity:1" fill="#303030" d="M 168.5,179.5 C 176.174,179.334 183.841,179.5 191.5,180C 192.406,181.699 192.739,183.533 192.5,185.5C 189.5,185.5 186.5,185.5 183.5,185.5C 183.5,193.5 183.5,201.5 183.5,209.5C 181.167,209.5 178.833,209.5 176.5,209.5C 176.5,201.5 176.5,193.5 176.5,185.5C 173.833,185.5 171.167,185.5 168.5,185.5C 168.5,183.5 168.5,181.5 168.5,179.5 Z"/></g>
<g><path style="opacity:1" fill="#292929" d="M 197.5,179.5 C 199.833,179.5 202.167,179.5 204.5,179.5C 204.5,189.5 204.5,199.5 204.5,209.5C 202.167,209.5 199.833,209.5 197.5,209.5C 197.5,199.5 197.5,189.5 197.5,179.5 Z"/></g>
<g><path style="opacity:1" fill="#6f6f6f" d="M 230.5,180.5 C 224.833,180.5 219.167,180.5 213.5,180.5C 213.81,183.713 213.477,186.713 212.5,189.5C 212.5,186.167 212.5,182.833 212.5,179.5C 218.69,179.177 224.69,179.51 230.5,180.5 Z"/></g>
<g><path style="opacity:1" fill="#2b2b2b" d="M 230.5,180.5 C 230.5,182.167 230.5,183.833 230.5,185.5C 226.833,185.5 223.167,185.5 219.5,185.5C 219.5,187.833 219.5,190.167 219.5,192.5C 222.833,192.5 226.167,192.5 229.5,192.5C 229.5,194.5 229.5,196.5 229.5,198.5C 226.167,198.5 222.833,198.5 219.5,198.5C 219.5,199.5 219.5,200.5 219.5,201.5C 218.527,203.948 218.194,206.615 218.5,209.5C 216.5,209.5 214.5,209.5 212.5,209.5C 212.5,202.833 212.5,196.167 212.5,189.5C 213.477,186.713 213.81,183.713 213.5,180.5C 219.167,180.5 224.833,180.5 230.5,180.5 Z"/></g>
<g><path style="opacity:1" fill="#313131" d="M 236.5,180.5 C 238.833,180.5 241.167,180.5 243.5,180.5C 243.666,190.524 243.332,200.524 242.5,210.5C 240.167,210.5 237.833,210.5 235.5,210.5C 235.99,200.506 236.323,190.506 236.5,180.5 Z"/></g>
<g><path style="opacity:1" fill="#2d2d2d" d="M 130.5,206.5 C 132.5,206.5 134.5,206.5 136.5,206.5C 136.5,208.167 136.5,209.833 136.5,211.5C 130.491,211.701 124.491,212.034 118.5,212.5C 118.629,202.479 118.296,192.479 117.5,182.5C 123.13,181.708 128.797,181.375 134.5,181.5C 134.739,183.467 134.406,185.301 133.5,187C 130.518,187.498 127.518,187.665 124.5,187.5C 124.5,189.5 124.5,191.5 124.5,193.5C 127.833,193.5 131.167,193.5 134.5,193.5C 134.5,195.5 134.5,197.5 134.5,199.5C 131.5,199.5 128.5,199.5 125.5,199.5C 125.5,201.833 125.5,204.167 125.5,206.5C 127.167,206.5 128.833,206.5 130.5,206.5 Z"/></g>
<g><path style="opacity:1" fill="#2c2c2c" d="M 264.5,193.5 C 265.209,194.404 266.209,194.737 267.5,194.5C 267.5,196.167 267.5,197.833 267.5,199.5C 264.5,199.5 261.5,199.5 258.5,199.5C 257.532,201.607 257.198,203.941 257.5,206.5C 260.5,206.5 263.5,206.5 266.5,206.5C 267.693,206.97 268.36,207.97 268.5,209.5C 268.167,210.5 267.833,211.5 267.5,212.5C 261.896,211.546 256.229,211.212 250.5,211.5C 251.166,201.514 251.499,191.514 251.5,181.5C 257.5,181.5 263.5,181.5 269.5,181.5C 269.5,183.5 269.5,185.5 269.5,187.5C 265.833,187.5 262.167,187.5 258.5,187.5C 258.5,189.5 258.5,191.5 258.5,193.5C 260.5,193.5 262.5,193.5 264.5,193.5 Z"/></g>
<g><path style="opacity:1" fill="#2f2f2f" d="M 276.5,182.5 C 283.371,182.6 290.037,183.767 296.5,186C 300.74,188.646 302.74,192.479 302.5,197.5C 302.02,208.313 296.353,213.646 285.5,213.5C 281.82,213.221 278.153,212.888 274.5,212.5C 275.347,202.513 276.014,192.513 276.5,182.5 Z"/></g>
<g><path style="opacity:1" fill="#2e2e2e" d="M 97.5,183.5 C 101.833,183.5 106.167,183.5 110.5,183.5C 110.5,185.5 110.5,187.5 110.5,189.5C 97.9606,187.532 93.4606,192.532 97,204.5C 101.644,209.437 106.644,209.771 112,205.5C 113.412,210.054 111.912,212.888 107.5,214C 94.9884,216.317 88.6551,211.15 88.5,198.5C 88.4526,195.705 88.9526,193.039 90,190.5C 92.3959,187.933 94.8959,185.6 97.5,183.5 Z"/></g>
<g><path style="opacity:1" fill="#ededed" d="M 149.5,185.5 C 156.225,185.204 157.891,187.871 154.5,193.5C 152.929,194.309 151.262,194.643 149.5,194.5C 149.5,191.5 149.5,188.5 149.5,185.5 Z"/></g>
<g><path style="opacity:1" fill="#fafafa" d="M 283.5,189.5 C 292.705,189.206 296.205,193.54 294,202.5C 293.215,204.286 292.049,205.786 290.5,207C 287.518,207.498 284.518,207.665 281.5,207.5C 282.167,201.5 282.833,195.5 283.5,189.5 Z"/></g>
<g><path style="opacity:1" fill="#949494" d="M 264.5,193.5 C 265.833,193.5 267.167,193.5 268.5,193.5C 268.795,195.735 268.461,197.735 267.5,199.5C 267.5,197.833 267.5,196.167 267.5,194.5C 266.209,194.737 265.209,194.404 264.5,193.5 Z"/></g>
<g><path style="opacity:1" fill="#696969" d="M 219.5,201.5 C 219.5,204.5 219.5,207.5 219.5,210.5C 216.941,210.802 214.607,210.468 212.5,209.5C 214.5,209.5 216.5,209.5 218.5,209.5C 218.194,206.615 218.527,203.948 219.5,201.5 Z"/></g>
<g><path style="opacity:1" fill="#7b7b7b" d="M 130.5,206.5 C 132.607,205.532 134.941,205.198 137.5,205.5C 137.795,207.735 137.461,209.735 136.5,211.5C 136.5,209.833 136.5,208.167 136.5,206.5C 134.5,206.5 132.5,206.5 130.5,206.5 Z"/></g>
<g><path style="opacity:1" fill="#a7a7a7" d="M 258.5,199.5 C 258.5,201.5 258.5,203.5 258.5,205.5C 261.385,205.194 264.052,205.527 266.5,206.5C 263.5,206.5 260.5,206.5 257.5,206.5C 257.198,203.941 257.532,201.607 258.5,199.5 Z"/></g>
<g><path style="opacity:1" fill="#0077d3" d="M 299.5,250.5 C 299.411,266.937 293.911,281.27 283,293.5C 258.276,318.375 229.276,336.708 196,348.5C 163.142,336.937 134.476,318.937 110,294.5C 98.9029,281.966 93.0696,267.299 92.5,250.5C 161.482,241.215 230.482,241.215 299.5,250.5 Z"/></g>
<g><path style="opacity:0.973" fill="#002254" d="M 92.5,250.5 C 93.0696,267.299 98.9029,281.966 110,294.5C 134.476,318.937 163.142,336.937 196,348.5C 229.276,336.708 258.276,318.375 283,293.5C 293.911,281.27 299.411,266.937 299.5,250.5C 303.439,251.327 307.439,251.994 311.5,252.5C 311.348,265.459 307.848,277.459 301,288.5C 285.56,310.273 266.06,327.44 242.5,340C 227.664,348.334 212.164,355.168 196,360.5C 164.541,350.196 136.374,334.362 111.5,313C 93.3306,296.827 82.9972,276.661 80.5,252.5C 84.426,251.448 88.426,250.782 92.5,250.5 Z"/></g>
</svg>
